X:1
T:Micky O'Callaghan's Fancy
R:hornpipe
M:4/4
L:1/8
K:A
cB|:AFEF ABcB|AFEF ABcd|~e2ef ecAc|~B2BA BdcB|
|AFEF ABcB|AFEF ABcd|~e2ef ecAc|1 ~B2A2 A2cB:|2 ~B2A2 A2ce|]
|:~f2ff fecd|~e2ef ecAc|~d2dB ~c2BA|FBBA ~B2cB|
|AFEF ABcB|AFEF ABcd|~e2ef ecAc|1 ~B2A2 A2ce:|2 ~B2A2 A2cB|]